X: 1
T: Harvest Home
N:from the box playing of Sally Sloane
Z:Ian Hayden 2017
M: 4/4
L: 1/8
K: Dmaj
|:AF|DAFA DAFA|defe dcBA|e2f2 gefd|edcB AGFE|
DAFA DAFA|defe dcBA|e2f2 gece|d2 d2 d2:|
|:cd|e2A2 f2A2|e2A2 f2A2|e2f2 gefd|edcB AGFE|
DAFA DAFA|defe dcBA|e2f2 gece|d2-d2- d4:|
